X: 481
T: Takanata
O: Bulgaria
F: http://www.youtube.com/watch?v=c-GXl-qFjLk
F: http://www.youtube.com/watch?v=p6pdsJFZrPE
F: http://www.youtube.com/watch?v=7_nxn0NWz_s
F: http://www.youtube.com/watch?v=-Iomc-VoFGI
M: 2/4
L: 1/8
Q: 1/4 = 240
K: Dm
%%MIDI gchord fzzz
%%MIDI program 23
%%MIDI bassprog 45
%%MIDI bassvol 60
P:A
|:"C"cBAG|"F"F2F2|"C"E2E2|DEFG    |\
  cAAG   |"F"F2F2|FDEC   |"D"D2D2 :|
P:B
|:"C"cAAG|"F"F2F2|"C"c2c2|"D"ddd2 |\
  "C"cAAG|"F"F2F2|FDEC   |"D"D2D2 :|
P:C
|:"C"cBAG|"F"F2F2|"C"E2E2|DEFG    |\
  cAAG   |"F"F2F2|FDEC   |"D"D2D2 :|
P:D
|:"C"C2Cz|CDEF   |AGFE   |"D"D2Dz |\
  "C"cBAG|A3G    |FDEC   |"D"D2z2 :|



